X:709
T:Mrs. Kennedy of Greenan
R:Reel
B:The Athole Collection
M:C|
L:1/8
K:E Minor
efed B2 AB|dAAB defd|efed B2 AF|GBeF E/E/E E2:|
geef gebg|f/g/a da fdaf|geef gebg|fdaf e/e/e e2|geef gebe|
f/g/a da fdaf|dfed Bgfe|dBAF E/E/E E2||

